svgs/regular/display-medical.svg

<svg xmlns="http://www.w3.org/2000/svg" viewBox="0 0 576 512"><!-- Font Awesome Pro 6.0.0-alpha2 by @fontawesome - https://fontawesome.com License - https://fontawesome.com/license (Commercial License) --><path d="M368 176H320V128C320 119.199 312.801 112 304 112H272C263.199 112 256 119.199 256 128V176H208C199.199 176 192 183.195 192 191.996V224C192 232.797 199.199 239.996 208 239.996H256V287.996C256 296.797 263.199 304 272 304H304C312.801 304 320 296.797 320 287.996V239.996H368C376.801 239.996 384 232.797 384 224V191.996C384 183.195 376.801 176 368 176ZM512 0H64C28.654 0 0 28.654 0 64V352C0 387.346 28.654 416 64 416H212.328L202.729 464H152C138.75 464 128 474.75 128 488S138.75 512 152 512H424C437.25 512 448 501.25 448 488S437.25 464 424 464H373.271L363.672 416H512C547.346 416 576 387.346 576 352V64C576 28.654 547.346 0 512 0ZM251.672 464L261.271 416H314.729L324.328 464H251.672ZM528 352C528 360.822 520.822 368 512 368H64C55.178 368 48 360.822 48 352V64C48 55.178 55.178 48 64 48H512C520.822 48 528 55.178 528 64V352Z"/></svg>

<svg xmlns="http://www.w3.org/2000/svg" viewBox="0 0 576 512"><!--! Font Awesome Pro 6.4.0 by @fontawesome - https://fontawesome.com License - https://fontawesome.com/license (Commercial License) Copyright 2023 Fonticons, Inc. --><path d="M512 48c8.8 0 16 7.2 16 16V352c0 8.8-7.2 16-16 16H336.5c-.3 0-.6 0-.8 0H240.4c-.3 0-.6 0-.8 0H64c-8.8 0-16-7.2-16-16V64c0-8.8 7.2-16 16-16H512zM64 416H211.7l-8 48H152c-13.3 0-24 10.7-24 24s10.7 24 24 24h72H352h72c13.3 0 24-10.7 24-24s-10.7-24-24-24H372.3l-8-48H512c35.3 0 64-28.7 64-64V64c0-35.3-28.7-64-64-64H64C28.7 0 0 28.7 0 64V352c0 35.3 28.7 64 64 64zm188.3 48l8-48h55.3l8 48H252.3zM256 128v48H208c-8.8 0-16 7.2-16 16v32c0 8.8 7.2 16 16 16h48v48c0 8.8 7.2 16 16 16h32c8.8 0 16-7.2 16-16V240h48c8.8 0 16-7.2 16-16V192c0-8.8-7.2-16-16-16H320V128c0-8.8-7.2-16-16-16H272c-8.8 0-16 7.2-16 16z"/></svg>
